X:61
T:Lilting Banshee
M:6/8
L:1/8
R:jig
K:G
EAA EAA | BAB G2A | Bee edB | dBA GED |
EAA EAA | BAB G2A | Bee edB | dBG A3 ::
eaa age | dBA G2A | Bee edB | def gfg |
eaa age | dBA G2A | Bee edB | dBG A3 :|
